image/Expertise.svg

<svg fill="none" height="24" viewBox="0 0 24 24" width="24" xmlns="http://www.w3.org/2000/svg" xmlns:xlink="http://www.w3.org/1999/xlink"><clipPath id="a"><path d="m0 0h24v24h-24z"/></clipPath><g clip-path="url(#a)"><path clip-rule="evenodd" d="m15.3827.244969c.3269.32695.3269.857041 0 1.183991-.4642.46416-.8814.95774-1.2501 1.47289l1.3471 1.34712c.327.32695.327.85704 0 1.18399-.3269.32695-.857.32695-1.184 0l-1.058-1.05803c-.2345.46212-.4337.93444-.5966 1.41227l5.4455 5.4454c.0411.0412.077.0855.1078.1322.4553-.1543.9056-.3415 1.347-.5608l-3.3576-3.3576c-.3269-.32695-.3269-.85704 0-1.18399.327-.32695.857-.32695 1.184 0l3.6568 3.65679c.5417-.3814 1.0601-.816 1.5462-1.30214.3269-.32695.857-.32695 1.184 0 .3269.32695.3269.85704 0 1.18399-2.9276 2.92765-6.9922 4.30175-10.668 3.58675.8371 3.5437-.4461 7.5274-3.2855 10.3667-.32695.327-.85704.327-1.18399 0-.32695-.3269-.32695-.857 0-1.1839.48754-.4876.91915-1.0099 1.29295-1.5565l-1.51098-1.511c-.32695-.327-.32695-.8571 0-1.184.32695-.327.85705-.327 1.184 0l1.18592 1.186c.2083-.4495.381-.9078.5173-1.3701-.0184-.0155-.0363-.0319-.0536-.0492l-5.37151-5.3715c-.49083.1448-.97709.3308-1.45297.5567l3.16032 3.1603c.32695.3269.32695.857 0 1.184-.32695.3269-.85704.3269-1.18399 0l-3.47404-3.4741c-.51942.3618-1.0163.776-1.4815 1.2413-.32695.3269-.857047.3269-1.183997 0-.3269507-.327-.3269507-.8571 0-1.184 2.839357-2.8394 6.823007-4.1227 10.366787-3.2855-.715-3.67583.6591-7.7404 3.5867-10.668031.327-.3269508.857-.3269508 1.184 0zm.916 11.567731-4.1117-4.11163c-.1766 1.30533-.0813 2.60553.3031 3.80863 1.2031.3843 2.5033.4796 3.8086.303zm-5.0463 1.2519c.3334.9685.4611 2.0096.3933 3.066l-3.77657-3.7766c1.05643-.0677 2.09757.0599 3.06597.3933l.2361.0813z" fill="#1e1e1e" fill-rule="evenodd"/></g></svg>

<svg width="24" height="24" viewBox="0 0 24 24" fill="none" xmlns="http://www.w3.org/2000/svg">
<g clip-path="url(#clip0_561_7673)">
<path fill-rule="evenodd" clip-rule="evenodd" d="M15.3827 0.244969C15.7096 0.571919 15.7096 1.10201 15.3827 1.42896C14.9185 1.89312 14.5013 2.3867 14.1326 2.90185L15.4797 4.24897C15.8067 4.57592 15.8067 5.10601 15.4797 5.43296C15.1528 5.75991 14.6227 5.75991 14.2957 5.43296L13.2377 4.37493C13.0032 4.83705 12.804 5.30937 12.6411 5.7872L18.0866 11.2326C18.1277 11.2738 18.1636 11.3181 18.1944 11.3648C18.6497 11.2105 19.1 11.0233 19.5414 10.804L16.1838 7.4464C15.8569 7.11945 15.8569 6.58936 16.1838 6.26241C16.5108 5.93546 17.0408 5.93546 17.3678 6.26241L21.0246 9.9192C21.5663 9.5378 22.0847 9.1032 22.5708 8.61706C22.8977 8.29011 23.4278 8.29011 23.7548 8.61706C24.0817 8.94401 24.0817 9.4741 23.7548 9.80105C20.8272 12.7287 16.7626 14.1028 13.0868 13.3878C13.9239 16.9315 12.6407 20.9152 9.8013 23.7545C9.47435 24.0815 8.94426 24.0815 8.61731 23.7545C8.29036 23.4276 8.29036 22.8975 8.61731 22.5706C9.10485 22.083 9.53646 21.5607 9.91026 21.0141L8.39928 19.5031C8.07233 19.1761 8.07233 18.646 8.39928 18.3191C8.72623 17.9921 9.25633 17.9921 9.58328 18.3191L10.7692 19.5051C10.9775 19.0556 11.1502 18.5973 11.2865 18.135C11.2681 18.1195 11.2502 18.1031 11.2329 18.0858L5.86139 12.7143C5.37056 12.8591 4.8843 13.0451 4.40842 13.271L7.56874 16.4313C7.89569 16.7582 7.89569 17.2883 7.56874 17.6153C7.24179 17.9422 6.7117 17.9422 6.38475 17.6153L2.91071 14.1412C2.39129 14.503 1.89441 14.9172 1.42921 15.3825C1.10226 15.7094 0.572163 15.7094 0.245213 15.3825C-0.0817377 15.0555 -0.0817377 14.5254 0.245213 14.1985C3.08457 11.3591 7.06822 10.0758 10.612 10.913C9.897 7.23717 11.2711 3.1726 14.1987 0.244969C14.5257 -0.0819818 15.0557 -0.0819818 15.3827 0.244969ZM16.2987 11.8127L12.187 7.70107C12.0104 9.0064 12.1057 10.3066 12.4901 11.5097C13.6932 11.894 14.9934 11.9893 16.2987 11.8127ZM11.2524 13.0646C11.5858 14.0331 11.7135 15.0742 11.6457 16.1306L7.86913 12.354C8.92556 12.2863 9.9667 12.4139 10.9351 12.7473L11.1712 12.8286L11.2524 13.0646Z" fill="#1E1E1E"/>
</g>
<defs>
<clipPath id="clip0_561_7673">
<rect width="24" height="24" fill="white"/>
</clipPath>
</defs>
</svg>
